;FLAVOR:UltiGCode
;TIME:7930
;MATERIAL:16976
;MATERIAL2:0
;NOZZLE_DIAMETER:0.6
;MINX:53.365
;MINY:48.555
;MINZ:0.4
;MAXX:144.766
;MAXY:98.758
;MAXZ:24.25
;Generated with Cura_SteamEngine 4.13.1
M82 ;absolute extrusion mode
G0 F3000 Y50 ;avoid prime blob
G92 E0
G92 E0
G10
;LAYER_COUNT:160
;LAYER:0
M107
G0 F3927.3 X56.044 Y53.322 Z0.4
;TYPE:SKIRT
G11
G1 F1800 X56.66 Y52.796 E0.17172
G1 X57.326 Y52.333 E0.34368
G1 X58.033 Y51.938 E0.51537
G1 X58.395 Y51.749 E0.60195
G1 X59.143 Y51.437 E0.77377
G1 X59.918 Y51.2 E0.94558
G1 X60.712 Y51.04 E1.11729
G1 X61.519 Y50.959 E1.28923
G1 X62.217 Y50.949 E1.43722
G1 X62.672 Y50.935 E1.53373
G1 X63.316 Y50.935 E1.67026
G1 X63.546 Y50.702 E1.73966
G1 X64.17 Y50.185 E1.91146
G1 X64.842 Y49.731 E2.08339
G1 X65.555 Y49.346 E2.25517
G1 X66.303 Y49.033 E2.42707
G1 X67.078 Y48.796 E2.59888
G1 X67.872 Y48.636 E2.77059
G1 X68.679 Y48.555 E2.94254
G1 X69.624 Y48.561 E3.14288
G1 X71.08 Y48.655 E3.4522
G1 X71.847 Y48.664 E3.61481
G1 X75.477 Y48.625 E4.38442
G1 X76.287 Y48.654 E4.55625
G1 X77.09 Y48.763 E4.72804
G1 X77.878 Y48.951 E4.89979
G1 X78.645 Y49.215 E5.07175
G1 X79.381 Y49.554 E5.24354
G1 X80.08 Y49.964 E5.41534
G1 X80.736 Y50.44 E5.58717
G1 X81.125 Y50.787 E5.69768
G1 X104.321 Y50.787 E10.61523
G1 X104.984 Y50.82 E10.75596
G1 X105.505 Y50.383 E10.90012
G1 X106.175 Y49.926 E11.07206
G1 X106.886 Y49.537 E11.24387
G1 X107.631 Y49.22 E11.41552
G1 X108.405 Y48.978 E11.58744
G1 X109.198 Y48.814 E11.75911
G1 X110.004 Y48.728 E11.93095
G1 X110.468 Y48.715 E12.02936
G1 X111.242 Y48.715 E12.19345
G1 X111.599 Y48.723 E12.26915
G1 X112.197 Y48.749 E12.39605
G1 X112.82 Y48.749 E12.52812
G1 X113.454 Y48.762 E12.66256
G1 X113.616 Y48.77 E12.69695
G1 X114.19 Y48.77 E12.81863
G1 X116.775 Y48.742 E13.36669
G1 X117.919 Y48.742 E13.60921
G1 X118.728 Y48.782 E13.78093
G1 X119.53 Y48.902 E13.95285
G1 X120.316 Y49.099 E14.12463
G1 X121.078 Y49.374 E14.29638
G1 X121.81 Y49.722 E14.4682
G1 X122.504 Y50.141 E14.64007
G1 X123.154 Y50.626 E14.812
G1 X123.476 Y50.92 E14.90444
G1 X134.053 Y50.92 E17.14676
G1 X134.862 Y50.96 E17.31848
G1 X135.664 Y51.08 E17.4904
G1 X136.201 Y51.205 E17.60728
G1 X136.973 Y51.45 E17.77899
G1 X137.718 Y51.77 E17.95089
G1 X138.323 Y52.097 E18.09668
G1 X138.815 Y52.378 E18.2168
G1 X139.141 Y52.569 E18.2969
G1 X139.819 Y53.013 E18.46871
G1 X140.23 Y53.344 E18.58059
G1 X140.386 Y53.448 E18.62034
G1 X141.012 Y53.963 E18.79219
G1 X141.584 Y54.536 E18.96383
G1 X142.175 Y55.27 E19.16361
G1 X142.25 Y55.375 E19.19097
G1 X142.688 Y56.057 E19.3628
G1 X143.056 Y56.779 E19.5346
G1 X143.352 Y57.533 E19.70632
G1 X143.572 Y58.313 E19.87813
G1 X143.714 Y59.111 E20.04997
G1 X143.779 Y60.049 E20.2493
G1 X143.785 Y60.539 E20.35319
G1 X143.755 Y61.349 E20.52503
G1 X143.729 Y61.579 E20.5741
G1 X143.774 Y63.031 E20.88207
G1 X143.789 Y63.981 E21.08349
G1 X143.736 Y64.921 E21.28309
G1 X143.771 Y66.037 E21.5198
G1 X143.791 Y67.403 E21.80942
G1 X143.743 Y68.374 E22.01552
G1 X143.778 Y69.537 E22.26219
G1 X143.784 Y70.323 E22.42883
G1 X143.739 Y71.284 E22.63278
G1 X143.78 Y72.663 E22.92526
G1 X143.784 Y72.884 E22.97212
G1 X143.786 Y73.631 E23.13049
G1 X143.733 Y74.501 E23.31527
G1 X143.783 Y76.036 E23.64086
G1 X143.788 Y76.74 E23.79011
G1 X143.736 Y77.549 E23.96197
G1 X143.767 Y78.485 E24.16052
G1 X143.783 Y79.838 E24.44737
G1 X143.743 Y80.543 E24.59707
G1 X143.854 Y80.74 E24.64501
G1 X144.18 Y81.482 E24.81683
G1 X144.432 Y82.252 E24.98859
G1 X144.606 Y83.044 E25.16049
G1 X144.702 Y83.849 E25.33236
G1 X144.72 Y84.284 E25.42466
G1 X144.766 Y87.224 E26.04802
G1 X144.739 Y88.034 E26.21983
G1 X144.632 Y88.838 E26.39178
G1 X144.446 Y89.627 E26.56364
G1 X144.184 Y90.393 E26.73527
G1 X143.847 Y91.131 E26.90726
G1 X143.457 Y91.884 E27.08704
G1 X143.049 Y92.584 E27.25881
G1 X142.574 Y93.241 E27.43068
G1 X142.037 Y93.848 E27.60249
G1 X141.443 Y94.399 E27.77426
G1 X140.797 Y94.889 E27.94615
G1 X140.29 Y95.208 E28.07314
G1 X139.084 Y95.909 E28.36887
G1 X138.364 Y96.282 E28.54077
G1 X137.611 Y96.581 E28.71253
G1 X136.832 Y96.805 E28.88437
G1 X136.035 Y96.951 E29.05615
G1 X135.228 Y97.018 E29.22782
G1 X134.417 Y97.004 E29.39978
G1 X133.612 Y96.911 E29.57157
G1 X132.82 Y96.739 E29.74339
G1 X132.049 Y96.49 E29.91516
G1 X131.656 Y96.319 E30.00602
G1 X123.993 Y96.319 E31.63057
G1 X123.184 Y96.279 E31.80229
G1 X122.382 Y96.159 E31.97421
G1 X121.596 Y95.962 E32.14599
G1 X120.834 Y95.687 E32.31774
G1 X120.294 Y95.43 E32.44452
G1 X119.804 Y95.779 E32.57206
G1 X119.101 Y96.182 E32.74384
G1 X118.362 Y96.513 E32.91551
G1 X117.593 Y96.771 E33.08747
G1 X116.803 Y96.951 E33.25924
G1 X115.999 Y97.052 E33.43103
G1 X115.374 Y97.076 E33.56362
G1 X113.006 Y97.076 E34.06564
G1 X112.197 Y97.036 E34.23736
G1 X111.395 Y96.916 E34.40928
G1 X110.609 Y96.719 E34.58106
G1 X109.847 Y96.444 E34.7528
G1 X109.26 Y96.165 E34.89059
G1 X108.752 Y96.517 E35.02161
G1 X108.043 Y96.91 E35.19347
G1 X107.299 Y97.232 E35.36533
G1 X106.527 Y97.478 E35.53711
G1 X105.735 Y97.648 E35.70883
G1 X104.929 Y97.738 E35.88077
G1 X104.417 Y97.754 E35.98937
G1 X103.625 Y97.754 E36.15727
G1 X102.816 Y97.714 E36.32899
G1 X102.014 Y97.594 E36.5009
G1 X101.228 Y97.397 E36.67269
G1 X100.466 Y97.122 E36.84443
G1 X99.734 Y96.774 E37.01626
G1 X99.641 Y96.718 E37.03927
G1 X98.197 Y96.713 E37.3454
G1 X84.97 Y96.705 E40.14953
G1 X83.887 Y96.697 E40.37913
G1 X82.788 Y96.684 E40.61214
G1 X82.281 Y96.669 E40.71967
G1 X81.503 Y96.649 E40.88466
G1 X80.739 Y96.602 E41.04693
G1 X80.658 Y96.68 E41.07077
G1 X80.024 Y97.184 E41.24247
G1 X79.343 Y97.623 E41.41424
G1 X78.622 Y97.993 E41.58605
G1 X77.868 Y98.29 E41.75785
G1 X77.088 Y98.512 E41.92978
G1 X76.29 Y98.655 E42.10165
G1 X75.371 Y98.722 E42.29699
G1 X73.229 Y98.757 E42.75116
G1 X73.05 Y98.758 E42.78911
G1 X71.55 Y98.75 E43.10711
G1 X70.873 Y98.743 E43.25064
G1 X70.603 Y98.736 E43.3079
G1 X69.393 Y98.736 E43.56442
G1 X68.584 Y98.696 E43.73614
G1 X67.782 Y98.576 E43.90806
G1 X66.996 Y98.379 E44.07984
G1 X66.234 Y98.104 E44.25158
G1 X65.502 Y97.756 E44.42341
G1 X64.808 Y97.337 E44.59528
G1 X64.158 Y96.852 E44.76721
G1 X63.59 Y96.333 E44.93032
G1 X63.207 Y96.333 E45.01152
G1 X62.672 Y96.35 E45.12499
G1 X61.935 Y96.354 E45.28124
G1 X61.126 Y96.314 E45.45296
G1 X60.324 Y96.194 E45.62488
G1 X59.538 Y95.997 E45.79666
G1 X58.776 Y95.722 E45.9684
G1 X58.044 Y95.374 E46.14023
G1 X57.35 Y94.955 E46.3121
G1 X56.7 Y94.47 E46.48403
G1 X55.965 Y93.783 E46.69732
G1 X55.636 Y93.435 E46.79884
G1 X55.109 Y92.819 E46.97071
G1 X54.646 Y92.154 E47.14249
G1 X54.25 Y91.447 E47.31428
G1 X53.925 Y90.705 E47.48602
G1 X53.675 Y89.934 E47.65785
G1 X53.503 Y89.142 E47.82966
G1 X53.409 Y88.337 E48.00148
G1 X53.402 Y87.362 E48.20819
G1 X53.505 Y85.4 E48.6247
G1 X53.501 Y85.382 E48.62861
G1 X53.419 Y84.575 E48.80058
G1 X53.42 Y83.696 E48.98693
G1 X53.505 Y82.159 E49.31327
G1 X53.43 Y81.565 E49.4402
G1 X53.42 Y80.492 E49.66768
G1 X53.496 Y79.124 E49.95815
G1 X53.419 Y78.5 E50.09144
G1 X53.41 Y77.446 E50.31489
G1 X53.501 Y75.804 E50.66353
G1 X53.427 Y75.222 E50.78791
G1 X53.415 Y74.131 E51.01921
G1 X53.508 Y72.45 E51.37613
G1 X53.432 Y71.839 E51.50666
G1 X53.416 Y70.913 E51.703
G1 X53.426 Y70.679 E51.75266
G1 X53.508 Y69.187 E52.06944
G1 X53.435 Y68.527 E52.21021
G1 X53.426 Y67.712 E52.383
G1 X53.446 Y67.22 E52.48739
G1 X53.509 Y66.051 E52.73558
G1 X53.437 Y65.405 E52.87338
G1 X53.428 Y64.588 E53.04659
G1 X53.458 Y63.838 E53.20572
G1 X53.52 Y62.685 E53.45051
G1 X53.448 Y62.103 E53.57483
G1 X53.437 Y61.048 E53.79851
G1 X53.444 Y60.925 E53.82463
G1 X53.372 Y60.284 E53.96137
G1 X53.365 Y59.394 E54.15006
G1 X53.381 Y59.049 E54.22328
G1 X53.458 Y58.243 E54.39493
G1 X53.615 Y57.448 E54.56672
G1 X53.849 Y56.672 E54.73855
G1 X54.158 Y55.923 E54.91032
G1 X54.54 Y55.208 E55.08218
G1 X54.888 Y54.674 E55.2173
G1 X54.981 Y54.543 E55.25136
G1 X55.483 Y53.907 E55.42313
G1 X56.044 Y53.322 E55.59496
G0 F3927.3 X56.445 Y53.673
G1 F1800 X57.046 Y53.169 E55.76125
G1 X57.694 Y52.728 E55.92742
G1 X58 Y52.561 E56.00132
G1 X58.693 Y52.195 E56.16747
G1 X59.42 Y51.901 E56.33372
G1 X60.173 Y51.683 E56.49991
G1 X60.944 Y51.543 E56.66604
G1 X61.932 Y51.479 E56.87593
G1 X62.542 Y51.472 E57.00526
G1 X62.672 Y51.465 E57.03286
G1 X63.527 Y51.465 E57.21412
G1 X64.078 Y50.939 E57.37561
G1 X64.696 Y50.458 E57.54164
G1 X65.361 Y50.043 E57.70782
G1 X66.065 Y49.697 E57.87412
G1 X66.8 Y49.425 E58.04026
G1 X67.559 Y49.229 E58.20645
G1 X68.334 Y49.112 E58.37261
G1 X69.117 Y49.074 E58.5388
G1 X69.59 Y49.09 E58.63914
G1 X71.059 Y49.185 E58.95121
G1 X71.846 Y49.194 E59.11807
G1 X75.484 Y49.155 E59.88937
G1 X76.267 Y49.184 E60.05548
G1 X77.043 Y49.294 E60.22164
G1 X77.804 Y49.482 E60.38782
G1 X78.542 Y49.746 E60.55398
G1 X79.249 Y50.084 E60.72012
G1 X79.918 Y50.493 E60.88635
G1 X80.542 Y50.967 E61.05248
G1 X80.916 Y51.317 E61.16107
G1 X104.321 Y51.317 E66.12293
G1 X105.104 Y51.357 E66.28914
G1 X105.179 Y51.368 E66.30521
G1 X105.417 Y51.138 E66.37538
G1 X106.033 Y50.654 E66.54146
G1 X106.695 Y50.235 E66.70755
G1 X107.397 Y49.885 E66.87385
G1 X108.131 Y49.609 E67.04009
G1 X108.889 Y49.409 E67.20629
G1 X109.663 Y49.287 E67.3724
G1 X110.468 Y49.245 E67.54329
G1 X111.242 Y49.245 E67.70738
G1 X111.576 Y49.252 E67.7782
G1 X112.197 Y49.279 E67.90998
G1 X112.82 Y49.279 E68.04206
G1 X113.454 Y49.292 E68.17649
G1 X113.611 Y49.3 E68.20982
G1 X114.196 Y49.3 E68.33384
G1 X116.781 Y49.272 E68.88189
G1 X117.919 Y49.272 E69.12315
G1 X118.702 Y49.312 E69.28936
G1 X119.476 Y49.431 E69.45538
G1 X120.235 Y49.629 E69.62167
G1 X120.969 Y49.903 E69.78777
G1 X121.672 Y50.251 E69.95406
G1 X122.336 Y50.668 E70.12029
G1 X122.953 Y51.15 E70.28627
G1 X123.266 Y51.45 E70.37819
G1 X134.053 Y51.45 E72.66503
G1 X134.836 Y51.49 E72.83124
G1 X135.61 Y51.609 E72.99726
G1 X136.066 Y51.718 E73.09665
G1 X136.813 Y51.956 E73.26286
G1 X137.531 Y52.269 E73.42891
G1 X138.051 Y52.552 E73.55442
G1 X138.547 Y52.835 E73.67549
G1 X138.873 Y53.026 E73.75559
G1 X139.528 Y53.456 E73.9217
G1 X139.918 Y53.774 E74.02838
G1 X140.09 Y53.889 E74.07224
G1 X140.694 Y54.39 E74.2386
G1 X141.243 Y54.949 E74.40471
G1 X141.744 Y55.578 E74.57519
G1 X141.819 Y55.683 E74.60254
G1 X142.241 Y56.343 E74.76862
G1 X142.594 Y57.043 E74.93482
G1 X142.874 Y57.775 E75.10097
G1 X143.078 Y58.532 E75.26718
G1 X143.204 Y59.306 E75.43343
G1 X143.249 Y60.056 E75.59271
G1 X143.255 Y60.546 E75.6966
G1 X143.225 Y61.329 E75.86272
G1 X143.198 Y61.567 E75.9135
G1 X143.244 Y63.04 E76.22593
G1 X143.259 Y63.99 E76.42735
G1 X143.205 Y64.929 E76.62675
G1 X143.241 Y66.054 E76.86537
G1 X143.261 Y67.412 E77.1533
G1 X143.214 Y68.381 E77.35897
G1 X143.249 Y69.552 E77.60733
G1 X143.254 Y70.332 E77.77269
G1 X143.21 Y71.281 E77.9741
G1 X143.251 Y72.679 E78.2706
G1 X143.254 Y72.885 E78.31428
G1 X143.256 Y73.632 E78.47264
G1 X143.203 Y74.508 E78.65869
G1 X143.253 Y76.053 E78.9864
G1 X143.258 Y76.741 E79.13226
G1 X143.206 Y77.56 E79.30624
G1 X143.241 Y78.67 E79.54168
G1 X143.254 Y79.844 E79.79058
G1 X143.211 Y80.598 E79.95069
G1 X143.213 Y80.676 E79.96723
G1 X143.491 Y81.209 E80.09467
G1 X143.781 Y81.937 E80.2608
G1 X143.996 Y82.691 E80.42702
G1 X144.132 Y83.463 E80.59321
G1 X144.19 Y84.293 E80.7696
G1 X144.236 Y87.233 E81.39295
G1 X144.208 Y88.016 E81.55906
G1 X144.101 Y88.793 E81.72533
G1 X143.915 Y89.554 E81.89142
G1 X143.653 Y90.293 E82.05764
G1 X143.376 Y90.887 E82.19659
G1 X142.986 Y91.64 E82.37636
G1 X142.591 Y92.317 E82.54253
G1 X142.128 Y92.95 E82.70879
G1 X141.604 Y93.533 E82.87497
G1 X141.023 Y94.059 E83.04112
G1 X140.391 Y94.523 E83.20734
G1 X140.024 Y94.75 E83.29883
G1 X138.818 Y95.451 E83.59455
G1 X138.121 Y95.81 E83.76076
G1 X137.391 Y96.096 E83.92698
G1 X136.636 Y96.306 E84.09311
G1 X135.864 Y96.438 E84.25915
G1 X135.081 Y96.491 E84.42553
G1 X134.298 Y96.464 E84.59162
G1 X133.522 Y96.357 E84.75769
G1 X132.76 Y96.172 E84.92393
G1 X132.021 Y95.91 E85.09015
G1 X131.776 Y95.789 E85.14808
G1 X123.993 Y95.789 E86.79808
G1 X123.21 Y95.749 E86.96429
G1 X122.436 Y95.63 E87.13031
G1 X121.677 Y95.432 E87.2966
G1 X120.943 Y95.158 E87.46269
G1 X120.234 Y94.806 E87.63051
G1 X120.096 Y94.925 E87.66914
G1 X119.453 Y95.374 E87.8354
G1 X118.769 Y95.756 E88.00149
G1 X118.049 Y96.066 E88.16768
G1 X117.301 Y96.3 E88.33383
G1 X116.533 Y96.458 E88.50006
G1 X115.374 Y96.546 E88.74647
G1 X113.006 Y96.546 E89.24849
G1 X112.223 Y96.506 E89.4147
G1 X111.449 Y96.387 E89.58072
G1 X110.69 Y96.189 E89.74701
G1 X109.956 Y95.915 E89.91311
G1 X109.253 Y95.567 E90.0794
G1 X109.205 Y95.537 E90.0914
G1 X108.889 Y95.789 E90.17709
G1 X108.229 Y96.212 E90.34328
G1 X107.53 Y96.565 E90.50929
G1 X106.798 Y96.846 E90.67552
G1 X106.041 Y97.05 E90.84173
G1 X105.267 Y97.177 E91.00801
G1 X104.417 Y97.224 E91.18848
G1 X103.625 Y97.224 E91.35639
G1 X102.842 Y97.184 E91.5226
G1 X102.068 Y97.065 E91.68862
G1 X101.309 Y96.867 E91.85491
G1 X100.575 Y96.593 E92.02101
G1 X99.872 Y96.245 E92.1873
G1 X99.782 Y96.188 E92.20989
G1 X98.199 Y96.183 E92.54549
G1 X84.973 Y96.175 E95.3494
G1 X83.893 Y96.167 E95.57836
G1 X82.63 Y96.151 E95.84614
G1 X82.121 Y96.132 E95.95412
G1 X81.51 Y96.119 E96.08369
G1 X80.727 Y96.069 E96.25002
G1 X80.558 Y96.041 E96.28634
G1 X80.152 Y96.416 E96.40351
G1 X79.525 Y96.886 E96.56963
G1 X78.853 Y97.289 E96.73575
G1 X78.143 Y97.622 E96.902
G1 X77.403 Y97.881 E97.06821
G1 X76.641 Y98.064 E97.23435
G1 X75.864 Y98.167 E97.40051
G1 X75.363 Y98.192 E97.50686
G1 X73.221 Y98.227 E97.96102
G1 X73.053 Y98.228 E97.99664
G1 X71.556 Y98.22 E98.31401
G1 X70.879 Y98.213 E98.45754
G1 X70.62 Y98.206 E98.51247
G1 X69.393 Y98.206 E98.77259
G1 X68.61 Y98.166 E98.9388
G1 X67.836 Y98.047 E99.10482
G1 X67.077 Y97.849 E99.27111
G1 X66.343 Y97.575 E99.43721
G1 X65.64 Y97.227 E99.60351
G1 X64.976 Y96.81 E99.76973
G1 X64.359 Y96.328 E99.93572
G1 X63.812 Y95.803 E100.09645
G1 X63.19 Y95.803 E100.22832
G1 X62.655 Y95.82 E100.34179
G1 X61.935 Y95.824 E100.49444
G1 X61.152 Y95.784 E100.66065
G1 X60.378 Y95.665 E100.82666
G1 X59.619 Y95.467 E100.99296
G1 X58.885 Y95.193 E101.15905
G1 X58.182 Y94.845 E101.32535
G1 X57.518 Y94.428 E101.49158
G1 X56.901 Y93.946 E101.65756
G1 X56.351 Y93.419 E101.81905
G1 X56.022 Y93.071 E101.92057
G1 X55.513 Y92.474 E102.0869
G1 X55.067 Y91.829 E102.25314
G1 X54.69 Y91.142 E102.41927
G1 X54.385 Y90.42 E102.58544
G1 X54.155 Y89.671 E102.75154
G1 X54.002 Y88.902 E102.91776
G1 X53.928 Y88.122 E103.08387
G1 X53.931 Y87.39 E103.23905
G1 X54.037 Y85.358 E103.67042
G1 X54.021 Y85.277 E103.68793
G1 X53.946 Y84.496 E103.85426
G1 X53.95 Y83.725 E104.01771
G1 X54.037 Y82.15 E104.35212
G1 X53.955 Y81.474 E104.49649
G1 X53.949 Y80.521 E104.69853
G1 X54.027 Y79.113 E104.99748
G1 X53.944 Y78.41 E105.14755
G1 X53.939 Y77.475 E105.34577
G1 X54.032 Y75.788 E105.70396
G1 X53.951 Y75.13 E105.84451
G1 X53.944 Y74.161 E106.04994
G1 X54.039 Y72.437 E106.41598
G1 X53.957 Y71.748 E106.56308
G1 X53.946 Y70.934 E106.73567
G1 X53.956 Y70.708 E106.78363
G1 X54.039 Y69.189 E107.10613
G1 X53.961 Y68.444 E107.26494
G1 X53.956 Y67.733 E107.41567
G1 X53.975 Y67.248 E107.51857
G1 X54.04 Y66.046 E107.77377
G1 X53.963 Y65.321 E107.92833
G1 X53.958 Y64.608 E108.07949
G1 X53.987 Y63.866 E108.23692
G1 X54.052 Y62.67 E108.49084
G1 X53.973 Y62.012 E108.63134
G1 X53.966 Y61.076 E108.82978
G1 X53.974 Y60.918 E108.86332
G1 X53.898 Y60.2 E109.01638
G1 X53.894 Y59.419 E109.18196
G1 X53.91 Y59.074 E109.25518
G1 X53.986 Y58.294 E109.42132
G1 X54.142 Y57.526 E109.58746
G1 X54.374 Y56.777 E109.75369
G1 X54.682 Y56.056 E109.91991
G1 X55.062 Y55.37 E110.08616
G1 X55.414 Y54.85 E110.21928
G1 X55.899 Y54.235 E110.38533
G1 X56.445 Y53.673 E110.55144
G0 F3927.3 X56.845 Y54.025
G1 F1800 X57.429 Y53.544 E110.71184
G1 X58.06 Y53.127 E110.87218
G1 X58.317 Y52.989 E110.93402
G1 X58.989 Y52.642 E111.09436
G1 X59.694 Y52.368 E111.25471
G1 X60.424 Y52.17 E111.41506
G1 X61.17 Y52.05 E111.57525
G1 X61.932 Y52.009 E111.73702
G1 X62.503 Y52.002 E111.85809
G1 X62.672 Y51.995 E111.89394
G1 X63.771 Y51.995 E112.12693
G1 X64.044 Y51.692 E112.2134
G1 X64.607 Y51.187 E112.37373
G1 X65.22 Y50.744 E112.53407
G1 X65.877 Y50.369 E112.69445
G1 X66.569 Y50.065 E112.85468
G1 X67.29 Y49.836 E113.01506
G1 X68.031 Y49.684 E113.17542
G1 X68.784 Y49.611 E113.33581
G1 X69.556 Y49.619 E113.49948
